tools/download-figma-icons/icons/solid/industry.svg

<svg width="25" height="24" viewBox="0 0 25 24" fill="none" xmlns="http://www.w3.org/2000/svg">
<path d="M23.6791 11.385C23.5807 11.3166 23.4675 11.2727 23.3487 11.2571C23.23 11.2414 23.1092 11.2544 22.9966 11.295L15.7516 13.9275V12C15.7514 11.8791 15.7219 11.76 15.6658 11.6529C15.6096 11.5458 15.5284 11.4539 15.4291 11.385C15.3307 11.3166 15.2175 11.2727 15.0987 11.2571C14.98 11.2414 14.8592 11.2544 14.7466 11.295L6.75156 14.205L6.38406 9.75H1.13406L0.00155733 23.19C-0.0115586 23.3983 0.0585796 23.6034 0.196557 23.76C0.267345 23.8363 0.353248 23.8971 0.448799 23.9384C0.54435 23.9797 0.647457 24.0007 0.751557 24H23.2516C23.4505 24 23.6412 23.921 23.7819 23.7803C23.9225 23.6397 24.0016 23.4489 24.0016 23.25V12C24.0014 11.8791 23.9719 11.76 23.9158 11.6529C23.8596 11.5458 23.7784 11.4539 23.6791 11.385ZM12.0016 21H9.75156C9.55264 21 9.36188 20.921 9.22123 20.7803C9.08057 20.6397 9.00156 20.4489 9.00156 20.25C9.00156 20.0511 9.08057 19.8603 9.22123 19.7197C9.36188 19.579 9.55264 19.5 9.75156 19.5H12.0016C12.2005 19.5 12.3912 19.579 12.5319 19.7197C12.6725 19.8603 12.7516 20.0511 12.7516 20.25C12.7516 20.4489 12.6725 20.6397 12.5319 20.7803C12.3912 20.921 12.2005 21 12.0016 21ZM12.0016 18H9.75156C9.55264 18 9.36188 17.921 9.22123 17.7803C9.08057 17.6397 9.00156 17.4489 9.00156 17.25C9.00156 17.0511 9.08057 16.8603 9.22123 16.7197C9.36188 16.579 9.55264 16.5 9.75156 16.5H12.0016C12.2005 16.5 12.3912 16.579 12.5319 16.7197C12.6725 16.8603 12.7516 17.0511 12.7516 17.25C12.7516 17.4489 12.6725 17.6397 12.5319 17.7803C12.3912 17.921 12.2005 18 12.0016 18ZM20.2516 21H18.0016C17.8026 21 17.6119 20.921 17.4712 20.7803C17.3306 20.6397 17.2516 20.4489 17.2516 20.25C17.2516 20.0511 17.3306 19.8603 17.4712 19.7197C17.6119 19.579 17.8026 19.5 18.0016 19.5H20.2516C20.4505 19.5 20.6412 19.579 20.7819 19.7197C20.9225 19.8603 21.0016 20.0511 21.0016 20.25C21.0016 20.4489 20.9225 20.6397 20.7819 20.7803C20.6412 20.921 20.4505 21 20.2516 21ZM20.2516 18H18.0016C17.8026 18 17.6119 17.921 17.4712 17.7803C17.3306 17.6397 17.2516 17.4489 17.2516 17.25C17.2516 17.0511 17.3306 16.8603 17.4712 16.7197C17.6119 16.579 17.8026 16.5 18.0016 16.5H20.2516C20.4505 16.5 20.6412 16.579 20.7819 16.7197C20.9225 16.8603 21.0016 17.0511 21.0016 17.25C21.0016 17.4489 20.9225 17.6397 20.7819 17.7803C20.6412 17.921 20.4505 18 20.2516 18ZM6.00156 5.19C5.98644 5.00167 5.9008 4.82598 5.76175 4.69805C5.62271 4.57013 5.4405 4.4994 5.25156 4.5H2.25156C2.06262 4.4994 1.88041 4.57013 1.74136 4.69805C1.60231 4.82598 1.51667 5.00167 1.50156 5.19L1.24656 8.25H6.25656L6.00156 5.19Z" fill="black"/>
<path d="M2.93402 3.105C2.73511 3.105 2.54434 3.02598 2.40369 2.88533C2.26304 2.74468 2.18402 2.55391 2.18402 2.355C2.186 1.73102 2.43475 1.13317 2.87597 0.691948C3.31719 0.250728 3.91504 0.00197775 4.53902 0L12.0015 0C12.2004 0 12.3912 0.0790176 12.5319 0.21967C12.6725 0.360322 12.7515 0.551088 12.7515 0.75C12.7515 0.948912 12.6725 1.13968 12.5319 1.28033C12.3912 1.42098 12.2004 1.5 12.0015 1.5H4.53902C4.31226 1.5 4.09479 1.59008 3.93444 1.75042C3.7741 1.91077 3.68402 2.12824 3.68402 2.355C3.68402 2.55391 3.605 2.74468 3.46435 2.88533C3.3237 3.02598 3.13293 3.105 2.93402 3.105Z" fill="black"/>
<path d="M15.0015 3.75H5.25153C5.05261 3.75 4.86185 3.67098 4.7212 3.53033C4.58054 3.38968 4.50153 3.19891 4.50153 3C4.50153 2.80109 4.58054 2.61032 4.7212 2.46967C4.86185 2.32902 5.05261 2.25 5.25153 2.25H15.0015C15.2004 2.25 15.3912 2.32902 15.5319 2.46967C15.6725 2.61032 15.7515 2.80109 15.7515 3C15.7515 3.19891 15.6725 3.38968 15.5319 3.53033C15.3912 3.67098 15.2004 3.75 15.0015 3.75Z" fill="black"/>
</svg>

<svg xmlns="http://www.w3.org/2000/svg" width="25" height="24" fill="none" viewBox="0 0 25 24"><path fill="currentColor" d="M23.68 11.385a.75.75 0 0 0-.683-.09l-7.245 2.633V12a.75.75 0 0 0-1.005-.705l-7.995 2.91-.368-4.455h-5.25L.002 23.19a.8.8 0 0 0 .195.57.75.75 0 0 0 .555.24h22.5a.75.75 0 0 0 .75-.75V12a.75.75 0 0 0-.323-.615M12.001 21h-2.25a.75.75 0 1 1 0-1.5h2.25a.75.75 0 0 1 0 1.5m0-3h-2.25a.75.75 0 1 1 0-1.5h2.25a.75.75 0 0 1 0 1.5m8.25 3h-2.25a.75.75 0 1 1 0-1.5h2.25a.75.75 0 0 1 0 1.5m0-3h-2.25a.75.75 0 1 1 0-1.5h2.25a.75.75 0 0 1 0 1.5M6.002 5.19a.75.75 0 0 0-.75-.69h-3a.75.75 0 0 0-.75.69l-.255 3.06h5.01zM2.934 3.105a.75.75 0 0 1-.75-.75A2.363 2.363 0 0 1 4.539 0h7.463a.75.75 0 0 1 0 1.5H4.539a.855.855 0 0 0-.855.855.75.75 0 0 1-.75.75"/><path fill="currentColor" d="M15.002 3.75h-9.75a.75.75 0 1 1 0-1.5h9.75a.75.75 0 0 1 0 1.5"/></svg>
